;FLAVOR:RepRap
;TIME:1776
;Filament used: 1.60572m
;Layer height: 0.2
;MINX:107.77
;MINY:100.27
;MINZ:0.1
;MAXX:127.23
;MAXY:119.73
;MAXZ:19.9
;Generated with Cura_SteamEngine 4.7.0
T0
M82 ;absolute extrusion mode
; Ender 3 Custom Start G-code
M140 S60          ; start preheating the bed WITHOUT wait to what is set in Cura
M104 S225 ﻿T0    ; start preheating hotend WITHOUT wait to what is set in Cura
M190 S60          ;Wait while bed heats to temperature set in Cura
M109 S 225 T0   ;Wait while hot end heats to temperature set in Cura
G28 ; Home all axes
G92 E0 ; Reset Extruder
G1 Z2.0 F3000 ; Move Z Axis up little to prevent scratching of Heat Bed
G1 X1.5 Y20 Z0.3 F5000.0 ; Move to start position
G1 X1.5 Y200.0 Z0.3 F1500.0 E15 ; Draw the first line
G1 X1.8Y200.0 Z0.3 F5000.0 ; Move to side a little
G1 X1.8 Y20 Z0.3 F1500.0 E30 ; Draw the second line
G92 E0 ; Reset Extruder
G1 Z2.0 F3000 ; Move Z Axis up little to prevent scratching of Heat Bed
M83 ;relative extrusion mode
G1 F2700 E-2
;LAYER_COUNT:100
;LAYER:0
M107
;MESH:20mm_calibration_cube.stl
G0 F6000 X125.61 Y118.11 Z0.1
;TYPE:WALL-INNER
G1 F2700 E2
G1 F1200 X109.39 Y118.11 E0.2631
G1 X109.39 Y101.89 E0.2631
G1 X125.61 Y101.89 E0.2631
G1 X125.61 Y118.11 E0.2631
G0 F6000 X126.15 Y118.65
G1 F1200 X108.85 Y118.65 E0.28062
G1 X108.85 Y101.35 E0.28062
G1 X126.15 Y101.35 E0.28062
G1 X126.15 Y118.65 E0.28062
G0 F6000 X126.69 Y119.19
G1 F1200 X108.31 Y119.19 E0.29813
G1 X108.31 Y100.81 E0.29813
G1 X126.69 Y100.81 E0.29813
G1 X126.69 Y119.19 E0.29813
G0 F6000 X127.23 Y119.73
;TYPE:WALL-OUTER
G1 F1200 X107.77 Y119.73 E0.31565
G1 X107.77 Y100.27 E0.31565
G1 X127.23 Y100.27 E0.31565
G1 X127.23 Y119.73 E0.31565
G0 F6000 X126.89 Y119.39
G0 X125.43 Y117.58
G0 X125.08 Y117.58
;TYPE:SKIN
G1 F1200 X109.92 Y117.58 E0.2459
G1 X109.92 Y102.42 E0.2459
G1 X125.08 Y102.42 E0.2459
G1 X125.08 Y117.58 E0.2459
G0 F6000 X125.43 Y117.58
G0 X125.43 Y102.717
G0 X124.863 Y102.717
G1 F1200 X124.782 Y102.635 E0.00187
G0 F6000 X124.018 Y102.635
G1 F1200 X124.863 Y103.48 E0.01938
G0 F6000 X124.863 Y104.244
G1 F1200 X123.255 Y102.635 E0.0369
G0 F6000 X122.491 Y102.635
G1 F1200 X124.863 Y105.008 E0.05442
G0 F6000 X124.863 Y105.771
G1 F1200 X121.727 Y102.635 E0.07194
G0 F6000 X120.964 Y102.635
G1 F1200 X124.863 Y106.535 E0.08945
G0 F6000 X124.863 Y107.299
G1 F1200 X120.2 Y102.635 E0.10698
G0 F6000 X119.436 Y102.635
G1 F1200 X124.863 Y108.062 E0.12449
G0 F6000 X124.863 Y108.826
G1 F1200 X118.673 Y102.635 E0.14201
G0 F6000 X117.909 Y102.635
G1 F1200 X124.863 Y109.59 E0.15953
G0 F6000 X124.863 Y110.353
G1 F1200 X117.145 Y102.635 E0.17705
G0 F6000 X116.381 Y102.635
G1 F1200 X124.863 Y111.117 E0.19457
G0 F6000 X124.863 Y111.881
G1 F1200 X115.618 Y102.635 E0.21209
G0 F6000 X114.854 Y102.635
G1 F1200 X124.863 Y112.644 E0.2296
G0 F6000 X124.863 Y113.408
G1 F1200 X114.09 Y102.635 E0.24713
G0 F6000 X113.327 Y102.635
G1 F1200 X124.863 Y114.172 E0.26464
G0 F6000 X124.863 Y114.935
G1 F1200 X112.563 Y102.635 E0.28215
G0 F6000 X111.799 Y102.635
G1 F1200 X124.863 Y115.699 E0.29968
G0 F6000 X124.863 Y116.463
G1 F1200 X111.036 Y102.635 E0.31719
G0 F6000 X110.272 Y102.635
G1 F1200 X124.863 Y117.226 E0.33471
G0 F6000 X124.236 Y117.363
G1 F1200 X110.135 Y103.262 E0.32347
G0 F6000 X110.135 Y104.026
G1 F1200 X123.472 Y117.363 E0.30594
G0 F6000 X122.709 Y117.363
G1 F1200 X110.135 Y104.789 E0.28844
G0 F6000 X110.135 Y105.553
G1 F1200 X121.945 Y117.363 E0.27091
G0 F6000 X121.181 Y117.363
G1 F1200 X110.135 Y106.317 E0.25339
G0 F6000 X110.135 Y107.08
G1 F1200 X120.418 Y117.363 E0.23589
G0 F6000 X119.654 Y117.363
G1 F1200 X110.135 Y107.844 E0.21836
G0 F6000 X110.135 Y108.608
G1 F1200 X118.89 Y117.363 E0.20083
G0 F6000 X118.127 Y117.363
G1 F1200 X110.135 Y109.371 E0.18333
G0 F6000 X110.135 Y110.135
G1 F1200 X117.362 Y117.362 E0.16578
G0 F6000 X116.599 Y117.362
G1 F1200 X110.135 Y110.899 E0.14827
G0 F6000 X110.135 Y111.662
G1 F1200 X115.835 Y117.362 E0.13075
G0 F6000 X115.071 Y117.362
G1 F1200 X110.135 Y112.426 E0.11323
G0 F6000 X110.135 Y113.19
G1 F1200 X114.308 Y117.362 E0.09571
G0 F6000 X113.544 Y117.362
G1 F1200 X110.135 Y113.953 E0.0782
G0 F6000 X110.135 Y114.717
G1 F1200 X112.78 Y117.362 E0.06067
G0 F6000 X112.017 Y117.362
G1 F1200 X110.135 Y115.481 E0.04316
G0 F6000 X110.135 Y116.244
G1 F1200 X111.253 Y117.362 E0.02565
G0 F6000 X110.489 Y117.362
G1 F1200 X110.135 Y117.008 E0.00812
M104 S225
G0 F6000 X109.13 Y117.008
;MESH:NONMESH
G0 F300 X109.13 Y117.008 Z0.3
G0 F6000 X109.642 Y117.858
G0 X125.61 Y118.11
;TIME_ELAPSED:46.422077
;LAYER:1
;TYPE:WALL-INNER
;MESH:20mm_calibration_cube.stl
G1 F1500 X109.39 Y118.11 E0.61905
G1 X109.39 Y101.89 E0.61905
G1 X125.61 Y101.89 E0.61905
G1 X125.61 Y118.11 E0.61905
G0 F7500 X126.15 Y118.65
G1 F1500 X108.85 Y118.65 E0.66027
G1 X108.85 Y101.35 E0.66027
G1 X126.15 Y101.35 E0.66027
G1 X126.15 Y118.65 E0.66027
G0 F7500 X126.69 Y119.19
G1 F1500 X108.31 Y119.19 E0.70149
G1 X108.31 Y100.81 E0.70149
G1 X126.69 Y100.81 E0.70149
G1 X126.69 Y119.19 E0.70149
G0 F7500 X127.23 Y119.73
;TYPE:WALL-OUTER
G1 F1500 X107.77 Y119.73 E0.74271
G1 X107.77 Y100.27 E0.74271
G1 X127.23 Y100.27 E0.74271
G1 X127.23 Y119.73 E0.74271
G0 F7500 X126.89 Y119.39
G0 X125.43 Y117.58
G0 X125.08 Y117.58
;TYPE:SKIN
G1 F1500 X109.92 Y117.58 E0.5786
G1 X109.92 Y102.42 E0.5786
G1 X125.08 Y102.42 E0.5786
G1 X125.08 Y117.58 E0.5786
G0 F7500 X124.863 Y117.222
G1 F1500 X124.72 Y117.364 E0.00769
G0 F7500 X123.957 Y117.364
G1 F1500 X124.863 Y116.458 E0.0489
G0 F7500 X124.863 Y115.694
G1 F1500 X123.193 Y117.364 E0.09014
G0 F7500 X122.429 Y117.364
G1 F1500 X124.863 Y114.931 E0.13135
G0 F7500 X124.863 Y114.167
G1 F1500 X121.666 Y117.364 E0.17256
G0 F7500 X120.902 Y117.364
G1 F1500 X124.863 Y113.403 E0.21379
G0 F7500 X124.863 Y112.639
G1 F1500 X120.138 Y117.364 E0.25503
G0 F7500 X119.375 Y117.364
G1 F1500 X124.863 Y111.876 E0.29621
G0 F7500 X124.863 Y111.112
G1 F1500 X118.611 Y117.364 E0.33745
G0 F7500 X117.847 Y117.364
G1 F1500 X124.863 Y110.348 E0.37869
G0 F7500 X124.863 Y109.585
G1 F1500 X117.084 Y117.363 E0.41984
G0 F7500 X116.321 Y117.363
G1 F1500 X124.863 Y108.821 E0.46105
G0 F7500 X124.863 Y108.057
G1 F1500 X115.557 Y117.363 E0.50229
G0 F7500 X114.793 Y117.363
G1 F1500 X124.863 Y107.294 E0.5435
G0 F7500 X124.863 Y106.53
G1 F1500 X114.03 Y117.363 E0.58471
G0 F7500 X113.266 Y117.363
G1 F1500 X124.863 Y105.766 E0.62595
G0 F7500 X124.863 Y105.003
G1 F1500 X112.502 Y117.363 E0.66716
G0 F7500 X111.739 Y117.363
G1 F1500 X124.863 Y104.239 E0.70837
G0 F7500 X124.863 Y103.475
G1 F1500 X110.975 Y117.363 E0.7496
G0 F7500 X110.211 Y117.363
G1 F1500 X124.863 Y102.712 E0.79081
G0 F7500 X124.175 Y102.635
G1 F1500 X110.136 Y116.675 E0.75778
G0 F7500 X110.136 Y115.911
G1 F1500 X123.412 Y102.635 E0.71657
G0 F7500 X122.648 Y102.635
G1 F1500 X110.136 Y115.148 E0.67536
G0 F7500 X110.136 Y114.384
G1 F1500 X121.884 Y102.635 E0.63412
G0 F7500 X121.121 Y102.635
G1 F1500 X110.136 Y113.62 E0.59291
G0 F7500 X110.136 Y112.857
G1 F1500 X120.357 Y102.635 E0.5517
G0 F7500 X119.593 Y102.635
G1 F1500 X110.136 Y112.093 E0.51047
G0 F7500 X110.136 Y111.329
G1 F1500 X118.83 Y102.635 E0.46926
G0 F7500 X118.066 Y102.635
G1 F1500 X110.136 Y110.566 E0.42805
G0 F7500 X110.136 Y109.802
G1 F1500 X117.302 Y102.635 E0.38681
G0 F7500 X116.538 Y102.635
G1 F1500 X110.136 Y109.038 E0.34557
G0 F7500 X110.136 Y108.275
G1 F1500 X115.775 Y102.635 E0.30439
G0 F7500 X115.011 Y102.635
G1 F1500 X110.136 Y107.511 E0.26315
G0 F7500 X110.136 Y106.747
G1 F1500 X114.247 Y102.635 E0.22192
G0 F7500 X113.484 Y102.635
G1 F1500 X110.136 Y105.983 E0.18071
G0 F7500 X110.136 Y105.22
G1 F1500 X112.72 Y102.635 E0.1395
G0 F7500 X111.956 Y102.635
G1 F1500 X110.136 Y104.456 E0.09826
G0 F7500 X110.136 Y103.692
G1 F1500 X111.193 Y102.635 E0.05705
G0 F7500 X110.429 Y102.635
G1 F1500 X110.136 Y102.929 E0.01584
G0 F7500 X109.13 Y102.929
G1 F2700 E-2
;MESH:NONMESH
G0 F300 X109.13 Y102.929 Z0.5
G0 F7500 X109.642 Y117.858
G0 X125.61 Y118.11
;TIME_ELAPSED:81.547201
;LAYER:2
;TYPE:WALL-INNER
;MESH:20mm_calibration_cube.stl
G1 F2700 E2
G1 F1800 X109.39 Y118.11 E0.61905
G1 X109.39 Y101.89 E0.61905
G1 X125.61 Y101.89 E0.61905
G1 X125.61 Y118.11 E0.61905
G0 F9000 X126.15 Y118.65
G1 F1800 X108.85 Y118.65 E0.66027
G1 X108.85 Y101.35 E0.66027
G1 X126.15 Y101.35 E0.66027
G1 X126.15 Y118.65 E0.66027
G0 F9000 X126.69 Y119.19
G1 F1800 X108.31 Y119.19 E0.70149
G1 X108.31 Y100.81 E0.70149
G1 X126.69 Y100.81 E0.70149
G1 X126.69 Y119.19 E0.70149
G0 F9000 X127.23 Y119.73
;TYPE:WALL-OUTER
G1 F1800 X107.77 Y119.73 E0.74271
G1 X107.77 Y100.27 E0.74271
G1 X127.23 Y100.27 E0.74271
G1 X127.23 Y119.73 E0.74271
G0 F9000 X126.89 Y119.39
G0 X125.43 Y117.58
G0 X125.08 Y117.58
;TYPE:SKIN
G1 F1800 X109.92 Y117.58 E0.5786
G1 X109.92 Y102.42 E0.5786
G1 X125.08 Y102.42 E0.5786
G1 X125.08 Y117.58 E0.5786
G0 F9000 X125.43 Y117.58
G0 X125.43 Y102.717
G0 X124.863 Y102.717
G1 F1800 X124.782 Y102.635 E0.0044
G0 F9000 X124.018 Y102.635
G1 F1800 X124.863 Y103.48 E0.04561
G0 F9000 X124.863 Y104.244
G1 F1800 X123.255 Y102.635 E0.08682
G0 F9000 X122.491 Y102.635
G1 F1800 X124.863 Y105.008 E0.12806
G0 F9000 X124.863 Y105.771
G1 F1800 X121.727 Y102.635 E0.16927
G0 F9000 X120.964 Y102.635
G1 F1800 X124.863 Y106.535 E0.21048
G0 F9000 X124.863 Y107.299
G1 F1800 X120.2 Y102.635 E0.25171
G0 F9000 X119.436 Y102.635
G1 F1800 X124.863 Y108.062 E0.29292
G0 F9000 X124.863 Y108.826
G1 F1800 X118.673 Y102.635 E0.33413
G0 F9000 X117.909 Y102.635
G1 F1800 X124.863 Y109.59 E0.37537
G0 F9000 X124.863 Y110.353
G1 F1800 X117.145 Y102.635 E0.41658
G0 F9000 X116.381 Y102.635
G1 F1800 X124.863 Y111.117 E0.45781
G0 F9000 X124.863 Y111.881
G1 F1800 X115.618 Y102.635 E0.49902
G0 F9000 X114.854 Y102.635
G1 F1800 X124.863 Y112.644 E0.54023
G0 F9000 X124.863 Y113.408
G1 F1800 X114.09 Y102.635 E0.58147
G0 F9000 X113.327 Y102.635
G1 F1800 X124.863 Y114.172 E0.62268
G0 F9000 X124.863 Y114.935
G1 F1800 X112.563 Y102.635 E0.66389
G0 F9000 X111.799 Y102.635
G1 F1800 X124.863 Y115.699 E0.70513
G0 F9000 X124.863 Y116.463
G1 F1800 X111.036 Y102.635 E0.74634
G0 F9000 X110.272 Y102.635
G1 F1800 X124.863 Y117.226 E0.78755
G0 F9000 X124.236 Y117.363
G1 F1800 X110.135 Y103.262 E0.7611
G0 F9000 X110.135 Y104.026
G1 F1800 X123.472 Y117.363 E0.71986
G0 F9000 X122.709 Y117.363
G1 F1800 X110.135 Y104.789 E0.67868
G0 F9000 X110.135 Y105.553
G1 F1800 X121.945 Y117.363 E0.63744
G0 F9000 X121.181 Y117.363
G1 F1800 X110.135 Y106.317 E0.59621
G0 F9000 X110.135 Y107.08
G1 F1800 X120.418 Y117.363 E0.55502
G0 F9000 X119.654 Y117.363
G1 F1800 X110.135 Y107.844 E0.51379
G0 F9000 X110.135 Y108.608
G1 F1800 X118.89 Y117.363 E0.47255
G0 F9000 X118.127 Y117.363
G1 F1800 X110.135 Y109.371 E0.43137
G0 F9000 X110.135 Y110.135
G1 F1800 X117.362 Y117.362 E0.39008
G0 F9000 X116.599 Y117.362
G1 F1800 X110.135 Y110.899 E0.34887
G0 F9000 X110.135 Y111.662
G1 F1800 X115.835 Y117.362 E0.30766
G0 F9000 X115.071 Y117.362
G1 F1800 X110.135 Y112.426 E0.26642
G0 F9000 X110.135 Y113.19
G1 F1800 X114.308 Y117.362 E0.22521
G0 F9000 X113.544 Y117.362
G1 F1800 X110.135 Y113.953 E0.184
G0 F9000 X110.135 Y114.717
G1 F1800 X112.78 Y117.362 E0.14276
G0 F9000 X112.017 Y117.362
G1 F1800 X110.135 Y115.481 E0.10155
G0 F9000 X110.135 Y116.244
G1 F1800 X111.253 Y117.362 E0.06034
G0 F9000 X110.489 Y117.362
G1 F1800 X110.135 Y117.008 E0.01911
G0 F9000 X109.13 Y117.008
;MESH:NONMESH
G0 F300 X109.13 Y117.008 Z0.7
G0 F9000 X109.642 Y117.858
G0 X125.61 Y118.11
;TIME_ELAPSED:112.309656
;LAYER:3
;[CAZD:
M105
;:CAZD]
;TYPE:WALL-INNER
;MESH:20mm_calibration_cube.stl
G1 F1800 X109.39 Y118.11 E0.61905
G1 X109.39 Y101.89 E0.61905
G1 X125.61 Y101.89 E0.61905
G1 X125.61 Y118.11 E0.61905
G0 F9000 X126.15 Y118.65
G1 F1800 X108.85 Y118.65 E0.66027
G1 X108.85 Y101.35 E0.66027
G1 X126.15 Y101.35 E0.66027
G1 X126.15 Y118.65 E0.66027
G0 F9000 X126.69 Y119.19
G1 F1800 X108.31 Y119.19 E0.70149
G1 X108.31 Y100.81 E0.70149
G1 X126.69 Y100.81 E0.70149
G1 X126.69 Y119.19 E0.70149
G0 F9000 X127.23 Y119.73
;TYPE:WALL-OUTER
G1 F1800 X107.77 Y119.73 E0.74271
G1 X107.77 Y100.27 E0.74271
G1 X127.23 Y100.27 E0.74271
G1 X127.23 Y119.73 E0.74271
G0 F9000 X126.89 Y119.39
G0 X125.43 Y117.58
G0 X125.08 Y117.58
;TYPE:SKIN
G1 F1800 X109.92 Y117.58 E0.5786
G1 X109.92 Y102.42 E0.5786
G1 X125.08 Y102.42 E0.5786
G1 X125.08 Y117.58 E0.5786
G0 F9000 X124.863 Y117.222
G1 F1800 X124.72 Y117.364 E0.00769
G0 F9000 X123.957 Y117.364
G1 F1800 X124.863 Y116.458 E0.0489
G0 F9000 X124.863 Y115.694
G1 F1800 X123.193 Y117.364 E0.09014
G0 F9000 X122.429 Y117.364
G1 F1800 X124.863 Y114.931 E0.13135
G0 F9000 X124.863 Y114.167
G1 F1800 X121.666 Y117.364 E0.17256
G0 F9000 X120.902 Y117.364
G1 F1800 X124.863 Y113.403 E0.21379
G0 F9000 X124.863 Y112.639
G1 F1800 X120.138 Y117.364 E0.25503
G0 F9000 X119.375 Y117.364
G1 F1800 X124.863 Y111.876 E0.29621
G0 F9000 X124.863 Y111.112
G1 F1800 X118.611 Y117.364 E0.33745
G0 F9000 X117.847 Y117.364
G1 F1800 X124.863 Y110.348 E0.37869
G0 F9000 X124.863 Y109.585
G1 F1800 X117.084 Y117.363 E0.41984
G0 F9000 X116.321 Y117.363
G1 F1800 X124.863 Y108.821 E0.46105
G0 F9000 X124.863 Y108.057
G1 F1800 X115.557 Y117.363 E0.50229
G0 F9000 X114.793 Y117.363
G1 F1800 X124.863 Y107.294 E0.5435
G0 F9000 X124.863 Y106.53
G1 F1800 X114.03 Y117.363 E0.58471
G0 F9000 X113.266 Y117.363
G1 F1800 X124.863 Y105.766 E0.62595
G0 F9000 X124.863 Y105.003
G1 F1800 X112.502 Y117.363 E0.66716
G0 F9000 X111.739 Y117.363
G1 F1800 X124.863 Y104.239 E0.70837
G0 F9000 X124.863 Y103.475
G1 F1800 X110.975 Y117.363 E0.7496
G0 F9000 X110.211 Y117.363
G1 F1800 X124.863 Y102.712 E0.79081
G0 F9000 X124.175 Y102.635
G1 F1800 X110.136 Y116.675 E0.75778
G0 F9000 X110.136 Y115.911
G1 F1800 X123.412 Y102.635 E0.71657
G0 F9000 X122.648 Y102.635
G1 F1800 X110.136 Y115.148 E0.67536
G0 F9000 X110.136 Y114.384
G1 F1800 X121.884 Y102.635 E0.63412
G0 F9000 X121.121 Y102.635
G1 F1800 X110.136 Y113.62 E0.59291
G0 F9000 X110.136 Y112.857
G1 F1800 X120.357 Y102.635 E0.5517
G0 F9000 X119.593 Y102.635
G1 F1800 X110.136 Y112.093 E0.51047
G0 F9000 X110.136 Y111.329
G1 F1800 X118.83 Y102.635 E0.46926
G0 F9000 X118.066 Y102.635
G1 F1800 X110.136 Y110.566 E0.42805
G0 F9000 X110.136 Y109.802
G1 F1800 X117.302 Y102.635 E0.38681
G0 F9000 X116.538 Y102.635
G1 F1800 X110.136 Y109.038 E0.34557
G0 F9000 X110.136 Y108.275
G1 F1800 X115.775 Y102.635 E0.30439
G0 F9000 X115.011 Y102.635
G1 F1800 X110.136 Y107.511 E0.26315
G0 F9000 X110.136 Y106.747
G1 F1800 X114.247 Y102.635 E0.22192
G0 F9000 X113.484 Y102.635
G1 F1800 X110.136 Y105.983 E0.18071
G0 F9000 X110.136 Y105.22
G1 F1800 X112.72 Y102.635 E0.1395
G0 F9000 X111.956 Y102.635
G1 F1800 X110.136 Y104.456 E0.09826
G0 F9000 X110.136 Y103.692
G1 F1800 X111.193 Y102.635 E0.05705
G0 F9000 X110.429 Y102.635
G1 F1800 X110.136 Y102.929 E0.01584
G0 F9000 X109.13 Y102.929
G1 F2700 E-2
;MESH:NONMESH
G0 F300 X109.13 Y102.929 Z0.9
G0 F9000 X109.642 Y117.858
G0 X125.61 Y118.11
;TIME_ELAPSED:142.984068
;LAYER:4
;TYPE:WALL-INNER
;MESH:20mm_calibration_cube.stl
G1 F2700 E2
G1 F1800 X109.39 Y118.11 E0.61905
G1 X109.39 Y101.89 E0.61905
G1 X125.61 Y101.89 E0.61905
G1 X125.61 Y118.11 E0.61905
G0 F9000 X126.15 Y118.65
G1 F1800 X108.85 Y118.65 E0.66027
G1 X108.85 Y101.35 E0.66027
G1 X126.15 Y101.35 E0.66027
G1 X126.15 Y118.65 E0.66027
G0 F9000 X126.69 Y119.19
G1 F1800 X108.31 Y119.19 E0.70149
G1 X108.31 Y100.81 E0.70149
G1 X126.69 Y100.81 E0.70149
G1 X126.69 Y119.19 E0.70149
G0 F9000 X127.23 Y119.73
;TYPE:WALL-OUTER
G1 F1800 X107.77 Y119.73 E0.74271
G1 X107.77 Y100.27 E0.74271
G1 X127.23 Y100.27 E0.74271
G1 X127.23 Y119.73 E0.74271
G0 F9000 X126.89 Y119.39
